svg/u1f62f.svg

<svg viewBox="0 0 128 128" xmlns="http://www.w3.org/2000/svg">
  <g id="gold">
    <radialGradient id="face_1_" cx="63.6" cy="1696.9" gradientTransform="matrix(1 0 0 1 0 -1634)" gradientUnits="userSpaceOnUse" r="56.9597">
      <stop offset="0.5" stop-color="#FDE030"/>
      <stop offset="0.92" stop-color="#F7C02B"/>
      <stop offset="1" stop-color="#F4A223"/>
    </radialGradient>
    <path id="face" d="M63.6,118.8c-27.9,0-58-17.5-58-55.9S35.7,7,63.6,7c15.5,0,29.8,5.1,40.4,14.4 c11.5,10.2,17.6,24.6,17.6,41.5s-6.1,31.2-17.6,41.4C93.4,113.6,79,118.8,63.6,118.8z" fill="url(#face_1_)"/>
    <path d="M111.49,29.67c5.33,8.6,8.11,18.84,8.11,30.23c0,16.9-6.1,31.2-17.6,41.4 c-10.6,9.3-25,14.5-40.4,14.5c-18.06,0-37-7.35-48.18-22.94c10.76,17.66,31,25.94,50.18,25.94c15.4,0,29.8-5.2,40.4-14.5 c11.5-10.2,17.6-24.5,17.6-41.4C121.6,50.16,118.13,38.84,111.49,29.67z" fill="#EB8F00"/>
  </g>
  <g id="facial_expressions">
    <g id="hushed-face">
      <path id="mouth" d="M77.6,92.4c0,7.07-5.73,12.8-12.8,12.8S52,99.47,52,92.4c0-7.07,5.73-12.8,12.8-12.8 l0,0c7.05-0.02,12.78,5.67,12.8,12.72C77.6,92.35,77.6,92.37,77.6,92.4z" fill="#422B0D"/>
    </g>
    <path d="M42.67,46.94L42.67,46.94c-4.19,0-8,3.54-8,9.42s3.81,9.41,8,9.41l0,0c4.19,0,8-3.54,8-9.41 S46.86,46.94,42.67,46.94z" fill="#422B0D"/>
    <g id="peepers">
      <path d="M42.28,50.87L42.28,50.87c-1.42-0.68-3.13-0.08-3.82,1.34c-0.53,1.11-0.29,2.44,0.6,3.3l0,0 c1.42,0.68,3.13,0.08,3.82-1.34C43.41,53.06,43.17,51.73,42.28,50.87z" fill="#896024"/>
    </g>
    <path d="M86,46.94L86,46.94c-4.19,0-8,3.54-8,9.42s3.81,9.41,8,9.41l0,0c4.19,0,8-3.54,8-9.41 S90.21,46.94,86,46.94z" fill="#422B0D"/>
    <g id="peepers-2">
      <path d="M85.63,50.87L85.63,50.87c-1.42-0.68-3.13-0.08-3.82,1.34c-0.53,1.11-0.29,2.44,0.6,3.3l0,0 c1.42,0.68,3.13,0.08,3.82-1.34C86.76,53.06,86.52,51.73,85.63,50.87z" fill="#896024"/>
    </g>
    <g id="eyebrows">
      <path d="M28.7,38c-0.7,0.73-1.87,0.76-2.6,0.05c-0.66-0.63-0.75-1.66-0.22-2.4 c1.13-1.63,2.52-3.05,4.12-4.22c4.19-3.23,9.44-4.76,14.71-4.28c2.49,0.31,2,3.49-0.21,3.7C38.56,31.32,32.97,33.85,28.7,38 L28.7,38" fill="#422B0D"/>
    </g>
    <g id="eyebrows-2">
      <path d="M99.77,38.23c0.7,0.73,1.87,0.76,2.6,0.05c0.66-0.63,0.75-1.66,0.22-2.4 c-1.11-1.61-2.49-3.02-4.07-4.17c-4.19-3.23-9.44-4.76-14.71-4.27c-2.48,0.31-2,3.48,0.21,3.69C89.94,31.6,95.5,34.11,99.77,38.23 L99.77,38.23" fill="#422B0D"/>
    </g>
  </g>
</svg>

<svg viewBox="0 0 128 128" xmlns="http://www.w3.org/2000/svg">
  <defs>
    <radialGradient id="face_1_" cx="63.6" cy="62.9" gradientUnits="userSpaceOnUse" r="56.9597">
      <stop offset="0.5" stop-color="#FDE030"/>
      <stop offset="0.92" stop-color="#F7C02B"/>
      <stop offset="1" stop-color="#F4A223"/>
    </radialGradient>
  </defs>
  <path id="face" d="M63.6,118.8 C35.7,118.8 5.6,101.3 5.6,62.9 C5.6,24.5 35.7,7 63.6,7 C79.1,7 93.4,12.1 104,21.4 C115.5,31.6 121.6,46 121.6,62.9 C121.6,79.8 115.5,94.1 104,104.3 C93.4,113.6 79,118.8 63.6,118.8 Z" fill="url(#face_1_)"/>
  <path d="M111.49,29.67 C116.82,38.27 119.6,48.51 119.6,59.9 C119.6,76.8 113.5,91.1 102,101.3 C91.4,110.6 77,115.8 61.6,115.8 C43.54,115.8 24.6,108.45 13.42,92.86 C24.18,110.52 44.42,118.8 63.6,118.8 C79,118.8 93.4,113.6 104,104.3 C115.5,94.1 121.6,79.8 121.6,62.9 C121.6,50.16 118.13,38.84 111.49,29.67 Z" fill="#EB8F00"/>
  <path id="mouth" d="M77.6,92.4 C77.6,99.47 71.87,105.2 64.8,105.2 C57.73,105.2 52,99.47 52,92.4 C52,85.33 57.73,79.6 64.8,79.6 L64.8,79.6 C71.85,79.58 77.58,85.27 77.6,92.32 C77.6,92.35 77.6,92.37 77.6,92.4 Z" fill="#422B0D"/>
  <path d="M42.67,46.94 L42.67,46.94 C38.48,46.94 34.67,50.48 34.67,56.36 C34.67,62.24 38.48,65.77 42.67,65.77 L42.67,65.77 C46.86,65.77 50.67,62.23 50.67,56.36 C50.67,50.49 46.86,46.94 42.67,46.94 Z" fill="#422B0D"/>
  <path d="M42.28,50.87 L42.28,50.87 C40.86,50.19 39.15,50.79 38.46,52.21 C37.93,53.32 38.17,54.65 39.06,55.51 L39.06,55.51 C40.48,56.19 42.19,55.59 42.88,54.17 C43.41,53.06 43.17,51.73 42.28,50.87 Z" fill="#896024"/>
  <path d="M86,46.94 L86,46.94 C81.81,46.94 78,50.48 78,56.36 C78,62.24 81.81,65.77 86,65.77 L86,65.77 C90.19,65.77 94,62.23 94,56.36 C94,50.49 90.21,46.94 86,46.94 Z" fill="#422B0D"/>
  <path d="M85.63,50.87 L85.63,50.87 C84.21,50.19 82.5,50.79 81.81,52.21 C81.28,53.32 81.52,54.65 82.41,55.51 L82.41,55.51 C83.83,56.19 85.54,55.59 86.23,54.17 C86.76,53.06 86.52,51.73 85.63,50.87 Z" fill="#896024"/>
  <path d="M28.7,38 C28,38.73 26.83,38.76 26.1,38.05 C25.44,37.42 25.35,36.39 25.88,35.65 C27.01,34.02 28.4,32.6 30,31.43 C34.19,28.2 39.44,26.67 44.71,27.15 C47.2,27.46 46.71,30.64 44.5,30.85 C38.56,31.32 32.97,33.85 28.7,38 L28.7,38" fill="#422B0D"/>
  <path d="M99.77,38.23 C100.47,38.96 101.64,38.99 102.37,38.28 C103.03,37.65 103.12,36.62 102.59,35.88 C101.48,34.27 100.1,32.86 98.52,31.71 C94.33,28.48 89.08,26.95 83.81,27.44 C81.33,27.75 81.81,30.92 84.02,31.13 C89.94,31.6 95.5,34.11 99.77,38.23 L99.77,38.23" fill="#422B0D"/>
</svg>
